packages/dnb-eufemia/assets/icons/building_construction.svg

<svg width="16" height="16" viewBox="0 0 16 16" fill="none" xmlns="http://www.w3.org/2000/svg">
<path d="M2.65404 8.95625V13.2159H5.96213V9.79308C5.96213 9.34271 6.3324 8.97761 6.78915 8.97761H7.78765M1 7.14078L2.65441 5.50965M12.044 5.79845L7.78765 1.48876C7.46469 1.17041 6.94119 1.17041 6.61824 1.48876L4.72196 3.35853M11.7328 14.75V10.9262M2.65441 5.50965V1.75H4.72196V3.35853M2.65441 5.50965L4.72196 3.35853M11.7328 10.9262H13.133V11.0797C13.133 11.2424 13.2791 11.3865 13.4442 11.3865H15V8.16488H13.4442C13.2791 8.16488 13.133 8.30895 13.133 8.4717V8.62511H11.266C10.7708 8.62511 10.296 8.81906 9.94584 9.1643C9.59571 9.50954 9.399 9.97778 9.399 10.466V11.465C9.40017 11.6832 9.69418 11.7698 9.82095 11.6012C10.0256 11.2476 10.3922 10.9947 10.7993 10.9262H11.7328Z" stroke="black" stroke-width="1.5" stroke-linecap="round" stroke-linejoin="round"/>
</svg>

<svg width="16" height="16" viewBox="0 0 16 16" fill="none" xmlns="http://www.w3.org/2000/svg"><path d="M2.654 8.956v4.26h3.308V9.793c0-.45.37-.815.827-.815h.999M1 7.14l1.654-1.63m9.39.288-4.256-4.31a.835.835 0 0 0-1.17 0l-1.896 1.87m7.01 11.392v-3.824M2.655 5.51V1.75h2.068v1.609m-2.068 2.15 2.068-2.15m7.01 7.567h1.401v.154c0 .162.146.306.311.306H15V8.165h-1.556a.318.318 0 0 0-.311.307v.153h-1.867c-.495 0-.97.194-1.32.54-.35.345-.547.813-.547 1.301v.999c.001.218.295.305.422.136.205-.353.571-.606.978-.675h.934Z" stroke="#000" stroke-width="1.5" stroke-linecap="round" stroke-linejoin="round"/></svg>
